X:1
T: Moll in the Wad
C:
R:Jig
Q:180
K:Bb
M:6/8
L:1/16
|:g2|f2B2B2 B2A2B2|f2B2B2 g2B2B2|f2B2B2 B2A2B2|c2A2F2 F2A2c2|f2B2B2 B2A2B2|f2B2B2 g2B2B2|b2a2g2 f2e2d2||1c2A2F2F4|:||2c2B2A2 G2F2D2|
|:B6 B2F2D2|B2F2D2 B4c2|d2c2B2 B2A2B2|c2A2F2 F2G2A2|B2F2D2 B2F2D2|B2F2D2 B4c2|d2c2B2 A2B2c2|1B6 B2d2c2:|2B6B4a2|
K:G
|:g2d2_B2 g2d2B2|g2d2_B2 g4a2|_b2a2g2 g2f2g2|a2f2d2 d2e2f2|g2d2_B2 g2d2B2|g2d2_B2 g4a2|_b2a2g2 f2g2a2|1g6 G4a2:|2g6g4||
